!!!COM: Johannes Brahms
!!!CNT: Deutscher
!!!TXO: Deutsche
!!!OTL: Bitteres zu sagen denkst du
!!!OPS: Op.32
!!!ONM: No. 7
!!!LYR: Nach Hafis von Daumer
!!!ONB: Original key: F Major
!!!ENC: Ayako Kataoka        
!!!EED: Leigh VanHandel
!!!YOR: C.F. Peters, Brahms Lieder fu2r eine Singstimme mit Klavierbegleitung, Band III, ausgabe fu2r tiefere Stimme
!!!ODT: 1864/
!!NB: Vocal melody and text only encoded.
**kern	**silbe
*clefG2	*
*k[f#c#]	*
*M4/4	*
*MM[con moto]	*
=3	=3
{4.f#	{Bit-
8f#	-te-
4f#	-res
4a	zu
=4	=4
4.cc#	sa-
8b	-gen
4b	denkst
4a}	du;}
=5	=5
{4a	{a-
4b-	-ber
4ee	nun
4a	und
=6	=6
4.dd	nim-
8cc#	-mer
4cc#	kra2nkst
4f#}	du,}
=7	=7
{4a	{ob
4bn	du
4fn	noch
4e	so
=8	=8
4.gn	bo2-
8fn	-se
(4f	bist.
4e)}	|}
=10	=10
{4.e	{Dei-
8e	-ne
4e	her-
4fn	-ben
=11	=11
4.b-	Re-
8a	-de-
4a	-ta-
4g	-ten
=12	=12
4.g	schei-
8g	-tern
4g	an
4a	ko-
=13	=13
4.dd	-rall-
8ccn	-ner
4cc	Klip-
4b}	-pe,}
=14	=14
4r	.
{2b	{schei-
4b	-tern
=15	=15
4r	.
2b	an
4cc#	ko-
=16	=16
2.ee	-rall-
4cc#	-ner
=17	=17
2b	Klip-
4a}	-pe,}
4r	.
=20	=20
{4.f#	{wer-
8f#	-den
4f#	all
4a	zu
=21	=21
4.cc#	rei-
8b	-nen
4b	Gna-
4a}	-den,}
=22	=22
{4a	{denn
4b-	sie
4ee	mu2s-
4a}	-sen,}
=23	=23
{4f#	{um
4g	zu
4cc#	scha-
4f#}	-den,}
=24	=24
{4a	{schif-
4b	-fen
4.fn	u2-
8e	-ber
=25	=25
4e	ei-
4f#	-ne
4a	Lip-
4g}	-pe,}
=26	=26
{4g	{die
4a	die
4ccn	Su2-
4b	-sse
=27	=27
2.ee	sel-
4g	-ber
=28	=28
4f#}	ist,}
{2f#	{die
4dd	die
=29	=29
2dd	Su2-
2e	-sse
=30	=30
2.a	sel-
4c#	-ber
=31	=31
2d}	ist.}
2r	.
*-	*-
